cssgg/search.svg

<svg
  width="24"
  height="24"
  viewBox="0 0 24 24"
  fill="none"
  xmlns="http://www.w3.org/2000/svg"
>
  <path
    fill-rule="evenodd"
    clip-rule="evenodd"
    d="M18.319 14.4326C20.7628 11.2941 20.542 6.75347 17.6569 3.86829C14.5327 0.744098 9.46734 0.744098 6.34315 3.86829C3.21895 6.99249 3.21895 12.0578 6.34315 15.182C9.22833 18.0672 13.769 18.2879 16.9075 15.8442C16.921 15.8595 16.9351 15.8745 16.9497 15.8891L21.1924 20.1317C21.5829 20.5223 22.2161 20.5223 22.6066 20.1317C22.9971 19.7412 22.9971 19.1081 22.6066 18.7175L18.364 14.4749C18.3493 14.4603 18.3343 14.4462 18.319 14.4326ZM16.2426 5.28251C18.5858 7.62565 18.5858 11.4246 16.2426 13.7678C13.8995 16.1109 10.1005 16.1109 7.75736 13.7678C5.41421 11.4246 5.41421 7.62565 7.75736 5.28251C10.1005 2.93936 13.8995 2.93936 16.2426 5.28251Z"
    fill="currentColor"
  />
</svg>

<svg viewBox="0 0 24 24" xmlns="http://www.w3.org/2000/svg"><path fill-rule="evenodd" d="M18.31 14.43c2.44-3.14 2.22-7.68-.67-10.57C14.51.73 9.45.73 6.32 3.86c-3.13 3.12-3.13 8.18 0 11.31 2.88 2.88 7.42 3.1 10.56.66 .01.01.02.03.04.04l4.24 4.24c.39.39 1.02.39 1.41 0 .39-.4.39-1.03 0-1.42l-4.25-4.25c-.02-.02-.03-.03-.05-.05Zm-2.08-9.16c2.34 2.34 2.34 6.14 0 8.48 -2.35 2.34-6.15 2.34-8.49 0 -2.35-2.35-2.35-6.15 0-8.49 2.34-2.35 6.14-2.35 8.48 0Z"/></svg>
